storage/app/icons/phosphoricons/fill/cable-car-fill.svg

<svg xmlns="http://www.w3.org/2000/svg" fill="currentColor" viewBox="0 0 256 256"><path d="M247.87 30.59a8 8 0 0 0-9.28-6.46l-224 40A8 8 0 0 0 16 80a8.6 8.6 0 0 0 1.42-.12L120 61.56V96H64a32 32 0 0 0-32 32v64a32 32 0 0 0 32 32h128a32 32 0 0 0 32-32v-64a32 32 0 0 0-32-32h-56V58.7l105.4-18.82a8 8 0 0 0 6.47-9.29M104 160v-48h48v48Zm-40-48h24v48H48v-32a16 16 0 0 1 16-16m144 16v32h-40v-48h24a16 16 0 0 1 16 16"/></svg>

<svg xmlns="http://www.w3.org/2000/svg" viewBox="0 0 256 256" fill="currentColor"><path d="M247.87,30.59a8,8,0,0,0-9.28-6.46l-224,40A8,8,0,0,0,16,80a8.6,8.6,0,0,0,1.42-.12L120,61.56V96H64a32,32,0,0,0-32,32v64a32,32,0,0,0,32,32H192a32,32,0,0,0,32-32V128a32,32,0,0,0-32-32H136V58.7L241.4,39.88A8,8,0,0,0,247.87,30.59ZM104,160V112h48v48ZM64,112H88v48H48V128A16,16,0,0,1,64,112Zm144,16v32H168V112h24A16,16,0,0,1,208,128Z"/></svg>
